alura/assets/api/cursos/simulado-extra-certificacao-az-900.svg

<svg width="50" height="50" viewBox="0 0 50 50" fill="none" xmlns="http://www.w3.org/2000/svg">
<path d="M6.60005 38.6L12.2 41.9L45.7001 23.4L45.6 12.2C45.6 10.6 44.7 9.10001 43.3 8.30001L27.2001 2.30001C25.8001 1.50001 24.1 1.50001 22.6 2.30001L6.50005 8.30001C5.20005 9.00001 4.30005 10.5 4.30005 12.1V34.7C4.30005 36.3 5.20005 37.8 6.60005 38.6Z" fill="#FCC34F"/>
<path d="M33.8 5.9L27.3 2.1C25.9 1.3 24.2 1.3 22.7 2.1L6.6 8.1C5.2 9 4.3 10.5 4.3 12.1L4 23.9L33.8 5.9Z" fill="#FDCF72"/>
<path d="M25.0001 49.7C24.0001 49.7 23.0001 49.4 22.1001 48.9L6.0001 39.6C4.2001 38.6 3.1001 36.7 3.1001 34.6V12.1C3.1001 9.99998 4.2001 8.09998 6.0001 7.09998L22.1001 1.09998C23.9001 0.0999756 26.1001 0.0999756 27.9001 1.09998L44.0001 7.09998C45.8001 8.09998 46.9001 9.99998 46.9001 12.1V29.7C46.9001 30.4 46.4001 30.9 45.7001 30.9C45.0001 30.9 44.5001 30.4 44.5001 29.7V12.1C44.5001 10.9 43.9001 9.79998 42.8001 9.19998L26.7001 3.19998C25.7001 2.59998 24.4001 2.59998 23.4001 3.19998L7.3001 9.19998C6.3001 9.79998 5.6001 10.9 5.6001 12.1V34.7C5.6001 35.9 6.2001 37 7.3001 37.6L23.4001 46.9C24.4001 47.5 25.7001 47.5 26.7001 46.9L31.1001 44.3C31.7001 44 32.4001 44.2 32.8001 44.7C33.1001 45.3 32.9001 46 32.4001 46.4L28.0001 49C27.0001 49.5 26.0001 49.7 25.0001 49.7Z" fill="#444444"/>
<path d="M36.8999 22.6C36.8999 22.4 36.9999 22.1 37.0999 21.9C37.7999 20.9 37.6999 19.5 36.7999 18.6C36.4999 18.3 36.3999 17.9 36.4999 17.5C36.6999 16.3 36.1999 15.1 34.9999 14.5C34.5999 14.3 34.3999 14 34.2999 13.6C34.0999 12.4 33.0999 11.5 31.8999 11.4C31.4999 11.4 31.0999 11.1 30.8999 10.8C30.2999 9.69999 28.9999 9.19999 27.7999 9.59999C27.3999 9.69999 26.9999 9.59999 26.6999 9.39999C25.6999 8.59999 24.3999 8.59999 23.3999 9.39999C23.0999 9.69999 22.5999 9.69999 22.2999 9.59999C21.0999 9.19999 19.7999 9.69999 19.1999 10.8C18.9999 11.1 18.5999 11.4 18.1999 11.4C16.9999 11.5 15.9999 12.4 15.7999 13.6C15.6999 14 15.4999 14.4 15.0999 14.5C13.9999 15 13.3999 16.3 13.5999 17.5C13.6999 17.9 13.5999 18.3 13.2999 18.6C12.3999 19.5 12.2999 20.8 12.9999 21.9C13.1999 22.2 13.2999 22.7 13.0999 23.1C12.5999 24.2 12.9999 25.6 13.9999 26.3C14.2999 26.5 14.4999 26.9 14.4999 27.4C14.4999 28.6 15.2999 29.7 16.4999 30L17.0999 30.3L14.6999 36.2C14.4999 36.7 14.5999 37.2 14.8999 37.6C15.2999 38 15.7999 38.1 16.2999 38L18.9999 37.2L20.2999 39.7C20.4999 40.1 20.9999 40.4 21.4999 40.4H21.5999C22.0999 40.4 22.5999 40.1 22.7999 39.6L25.1999 33.7L27.5999 39.6C27.7999 40.1 28.1999 40.4 28.7999 40.4C29.2999 40.4 29.7999 40.2 29.9999 39.7L31.2999 37.2L33.9999 38C34.4999 38.2 34.9999 38 35.3999 37.6C35.6999 37.2 35.7999 36.7 35.5999 36.2L32.9999 30.2C33.1999 30 33.3999 29.9 33.5999 29.9C34.7999 29.6 35.5999 28.5 35.5999 27.3C35.5999 26.9 35.7999 26.5 36.0999 26.2C37.0999 25.5 37.4999 24.2 36.9999 23C36.8999 22.9 36.8999 22.8 36.8999 22.6ZM21.2999 38.8L19.9999 36.4C19.7999 36 19.2999 35.7 18.7999 35.7C18.6999 35.7 18.4999 35.7 18.3999 35.8L15.7999 36.6L17.7999 31.8C18.3999 32.4 19.1999 32.6 19.9999 32.5C20.3999 32.5 20.7999 32.6 21.0999 32.9C21.6999 33.6 22.4999 33.9 23.2999 33.8L21.2999 38.8ZM34.0999 36.5L31.4999 35.7C30.8999 35.5 30.1999 35.8 29.8999 36.4L28.5999 38.8L26.4999 33.8C27.2999 33.9 28.1999 33.6 28.6999 32.9C28.9999 32.6 29.3999 32.4 29.7999 32.5C30.5999 32.6 31.3999 32.3 31.9999 31.8L34.0999 36.5ZM35.8999 21.1C35.3999 21.8 35.2999 22.8 35.6999 23.6C35.8999 24.1 35.6999 24.8 35.2999 25.1C34.5999 25.6 34.1999 26.4 34.1999 27.3C34.1999 27.9 33.7999 28.4 33.2999 28.5C32.5999 28.7 31.9999 29.1 31.6999 29.7C31.5999 29.8 31.5999 30 31.4999 30.1C31.2999 30.7 30.7999 31 30.1999 30.9C29.2999 30.8 28.4999 31.1 27.8999 31.8C27.4999 32.2 26.8999 32.4 26.3999 32.1C25.9999 32.1 25.7999 32 25.4999 32C25.2999 32 25.1999 31.9 24.9999 31.9H24.3999C24.1999 31.9 23.8999 32 23.6999 32.2C23.1999 32.5 22.5999 32.4 22.1999 31.9C21.5999 31.2 20.7999 30.9 19.8999 31C19.2999 31.1 18.7999 30.7 18.5999 30.2C18.5999 30.1 18.4999 29.9 18.3999 29.8C18.0999 29.2 17.4999 28.7 16.7999 28.6C16.1999 28.5 15.7999 27.9 15.8999 27.4C15.8999 26.5 15.4999 25.7 14.7999 25.2C14.2999 24.9 14.1999 24.2 14.3999 23.7C14.6999 22.9 14.5999 22 14.1999 21.2C13.8999 20.7 13.8999 20.1 14.2999 19.7C14.8999 19.1 15.1999 18.2 14.9999 17.3C14.8999 16.7 15.1999 16.2 15.6999 15.9C16.4999 15.5 16.9999 14.8 17.1999 13.9C17.2999 13.3 17.7999 12.9 18.2999 12.9C19.1999 12.8 19.9999 12.4 20.3999 11.6C20.6999 11.1 21.2999 10.9 21.7999 11C22.5999 11.3 23.5999 11.1 24.1999 10.5C24.6999 10.1 25.2999 10.1 25.7999 10.5C26.4999 11 27.3999 11.2 28.1999 11C28.7999 10.8 29.3999 11.1 29.5999 11.6C29.9999 12.4 30.7999 12.8 31.6999 12.9C32.2999 12.9 32.6999 13.4 32.7999 13.9C32.9999 14.8 33.4999 15.5 34.2999 15.9C34.7999 16.1 35.0999 16.7 34.9999 17.3C34.7999 18.2 35.0999 19.1 35.6999 19.7C35.8999 19.9 35.9999 20.2 35.9999 20.6C36.0999 20.7 36.0999 20.9 35.8999 21.1Z" fill="#444444"/>
<path d="M34.2001 20.1C34.2001 20.5 34 20.8 33.6 20.9H33.5C33.2 20.9 32.9 20.6 32.8 20.3C32.3 16.3 28.9 13.4 25 13.4C21.1 13.4 17.6 16.4 17.2 20.3C17.2 20.5 17.1 20.7 16.9 20.8C16.7 20.9 16.6 21 16.4 20.9C16 20.9 15.8 20.6 15.8 20.2V20.1C16.4 15.4 20.3 11.9 25 11.9C29.7 11.9 33.7001 15.5 34.2001 20.1ZM34.2001 22.4C33.6001 27.1 29.7 30.6 25 30.6C20.3 30.6 16.3 27.1 15.8 22.4C15.8 22 16 21.7 16.4 21.6C16.8 21.5 17.1 21.8 17.2 22.2C17.7 26.2 21.1 29.1 25 29.1C28.9 29.1 32.4 26.1 32.8 22.2C32.8 22 32.9 21.9 33.1 21.7C33.3 21.6 33.4 21.5 33.6 21.6C33.8 21.6 33.9 21.7 34.1 21.9C34.2 22 34.3001 22.2 34.2001 22.4Z" fill="#444444"/>
<path d="M29.6 20.8C29.3 20.5 29.0001 20.4 28.7001 20.3C28.5001 19.4 27.7 18.8 26.8 18.8C26.5 18.8 26.2 18.9 26 19L25.4 18.4C25 18.1 24.5 17.9 23.9 17.9C22.5 17.9 21.4 18.9 21.3 20.3C21 20.4 20.7 20.6 20.4 20.8C20 21.2 19.8 21.7 19.8 22.2C19.8 22.7 20 23.2 20.4 23.6C20.8 24 21.3 24.2 21.8 24.2H28.2001C28.7001 24.2 29.2 24 29.6 23.6C30 23.2 30.2001 22.7 30.2001 22.2C30.2001 21.7 30 21.2 29.6 20.8ZM28.2001 23.2H21.8C21.3 23.2 20.9 22.8 20.9 22.3C20.9 21.8 21.3 21.4 21.8 21.4H22.5L22.4 20.8V20.6C22.4 19.8 23.1 19.1 23.9 19.1C24.5 19.1 25.1 19.5 25.3 20.1L25.6 20.9L26.2001 20.3C26.4001 20.1 26.6 20 26.9 20C27.4 20 27.8 20.4 27.8 20.9V21.4H28.3C28.8 21.4 29.2001 21.8 29.2001 22.3C29.2001 22.8 28.7001 23.2 28.2001 23.2Z" fill="#444444"/>
</svg>

<svg xmlns="http://www.w3.org/2000/svg" fill="none" viewBox="0 0 50 50"><path fill="#FCC34F" d="M6.6 38.6l5.6 3.3 33.5-18.5-.1-11.2c0-1.6-.9-3.1-2.3-3.9l-16.1-6c-1.4-.8-3.1-.8-4.6 0l-16.1 6c-1.3.7-2.2 2.2-2.2 3.8v22.6c0 1.6.9 3.1 2.3 3.9z"/><path fill="#FDCF72" d="M33.8 5.9l-6.5-3.8c-1.4-.8-3.1-.8-4.6 0l-16.1 6c-1.4.9-2.3 2.4-2.3 4L4 23.9l29.8-18z"/><path fill="#444" d="M25 49.7c-1 0-2-.3-2.9-.8L6 39.6c-1.8-1-2.9-2.9-2.9-5V12.1c0-2.1 1.1-4 2.9-5l16.1-6c1.8-1 4-1 5.8 0l16.1 6c1.8 1 2.9 2.9 2.9 5v17.6c0 .7-.5 1.2-1.2 1.2s-1.2-.5-1.2-1.2V12.1c0-1.2-.6-2.3-1.7-2.9l-16.1-6c-1-.6-2.3-.6-3.3 0l-16.1 6c-1 .6-1.7 1.7-1.7 2.9v22.6c0 1.2.6 2.3 1.7 2.9l16.1 9.3c1 .6 2.3.6 3.3 0l4.4-2.6c.6-.3 1.3-.1 1.7.4.3.6.1 1.3-.4 1.7L28 49c-1 .5-2 .7-3 .7z"/><path fill="#444" d="M36.9 22.6c0-.2.1-.5.2-.7.7-1 .6-2.4-.3-3.3-.3-.3-.4-.7-.3-1.1.2-1.2-.3-2.4-1.5-3-.4-.2-.6-.5-.7-.9-.2-1.2-1.2-2.1-2.4-2.2-.4 0-.8-.3-1-.6-.6-1.1-1.9-1.6-3.1-1.2-.4.1-.8 0-1.1-.2-1-.8-2.3-.8-3.3 0-.3.3-.8.3-1.1.2-1.2-.4-2.5.1-3.1 1.2-.2.3-.6.6-1 .6-1.2.1-2.2 1-2.4 2.2-.1.4-.3.8-.7.9-1.1.5-1.7 1.8-1.5 3 .1.4 0 .8-.3 1.1-.9.9-1 2.2-.3 3.3.2.3.3.8.1 1.2-.5 1.1-.1 2.5.9 3.2.3.2.5.6.5 1.1 0 1.2.8 2.3 2 2.6l.6.3-2.4 5.9c-.2.5-.1 1 .2 1.4.4.4.9.5 1.4.4l2.7-.8 1.3 2.5c.2.4.7.7 1.2.7h.1c.5 0 1-.3 1.2-.8l2.4-5.9 2.4 5.9c.2.5.6.8 1.2.8.5 0 1-.2 1.2-.7l1.3-2.5 2.7.8c.5.2 1 0 1.4-.4.3-.4.4-.9.2-1.4l-2.6-6c.2-.2.4-.3.6-.3 1.2-.3 2-1.4 2-2.6 0-.4.2-.8.5-1.1 1-.7 1.4-2 .9-3.2-.1-.1-.1-.2-.1-.4zM21.3 38.8L20 36.4c-.2-.4-.7-.7-1.2-.7-.1 0-.3 0-.4.1l-2.6.8 2-4.8c.6.6 1.4.8 2.2.7.4 0 .8.1 1.1.4.6.7 1.4 1 2.2.9l-2 5zm12.8-2.3l-2.6-.8c-.6-.2-1.3.1-1.6.7l-1.3 2.4-2.1-5c.8.1 1.7-.2 2.2-.9.3-.3.7-.5 1.1-.4.8.1 1.6-.2 2.2-.7l2.1 4.7zm1.8-15.4c-.5.7-.6 1.7-.2 2.5.2.5 0 1.2-.4 1.5-.7.5-1.1 1.3-1.1 2.2 0 .6-.4 1.1-.9 1.2-.7.2-1.3.6-1.6 1.2-.1.1-.1.3-.2.4-.2.6-.7.9-1.3.8-.9-.1-1.7.2-2.3.9-.4.4-1 .6-1.5.3-.4 0-.6-.1-.9-.1-.2 0-.3-.1-.5-.1h-.6c-.2 0-.5.1-.7.3-.5.3-1.1.2-1.5-.3-.6-.7-1.4-1-2.3-.9-.6.1-1.1-.3-1.3-.8 0-.1-.1-.3-.2-.4-.3-.6-.9-1.1-1.6-1.2-.6-.1-1-.7-.9-1.2 0-.9-.4-1.7-1.1-2.2-.5-.3-.6-1-.4-1.5.3-.8.2-1.7-.2-2.5-.3-.5-.3-1.1.1-1.5.6-.6.9-1.5.7-2.4-.1-.6.2-1.1.7-1.4.8-.4 1.3-1.1 1.5-2 .1-.6.6-1 1.1-1 .9-.1 1.7-.5 2.1-1.3.3-.5.9-.7 1.4-.6.8.3 1.8.1 2.4-.5.5-.4 1.1-.4 1.6 0 .7.5 1.6.7 2.4.5.6-.2 1.2.1 1.4.6.4.8 1.2 1.2 2.1 1.3.6 0 1 .5 1.1 1 .2.9.7 1.6 1.5 2 .5.2.8.8.7 1.4-.2.9.1 1.8.7 2.4.2.2.3.5.3.9.1.1.1.3-.1.5z"/><path fill="#444" d="M34.2 20.1c0 .4-.2.7-.6.8h-.1c-.3 0-.6-.3-.7-.6-.5-4-3.9-6.9-7.8-6.9s-7.4 3-7.8 6.9c0 .2-.1.4-.3.5-.2.1-.3.2-.5.1-.4 0-.6-.3-.6-.7v-.1c.6-4.7 4.5-8.2 9.2-8.2 4.7 0 8.7 3.6 9.2 8.2zm0 2.3c-.6 4.7-4.5 8.2-9.2 8.2-4.7 0-8.7-3.5-9.2-8.2 0-.4.2-.7.6-.8.4-.1.7.2.8.6.5 4 3.9 6.9 7.8 6.9s7.4-3 7.8-6.9c0-.2.1-.3.3-.5.2-.1.3-.2.5-.1.2 0 .3.1.5.3.1.1.2.3.1.5z"/><path fill="#444" d="M29.6 20.8c-.3-.3-.6-.4-.9-.5-.2-.9-1-1.5-1.9-1.5-.3 0-.6.1-.8.2l-.6-.6c-.4-.3-.9-.5-1.5-.5-1.4 0-2.5 1-2.6 2.4-.3.1-.6.3-.9.5-.4.4-.6.9-.6 1.4 0 .5.2 1 .6 1.4.4.4.9.6 1.4.6h6.4c.5 0 1-.2 1.4-.6.4-.4.6-.9.6-1.4 0-.5-.2-1-.6-1.4zm-1.4 2.4h-6.4c-.5 0-.9-.4-.9-.9s.4-.9.9-.9h.7l-.1-.6v-.2c0-.8.7-1.5 1.5-1.5.6 0 1.2.4 1.4 1l.3.8.6-.6c.2-.2.4-.3.7-.3.5 0 .9.4.9.9v.5h.5c.5 0 .9.4.9.9s-.5.9-1 .9z"/></svg>
